build/images/icons/finance.svg

<svg width="32" height="32" viewBox="0 0 32 32" fill="none" xmlns="http://www.w3.org/2000/svg">
<path d="M16.0003 2.66602C8.64033 2.66602 2.66699 8.63935 2.66699 15.9993C2.66699 23.3594 8.64033 29.3327 16.0003 29.3327C23.3603 29.3327 29.3337 23.3594 29.3337 15.9993C29.3337 8.63935 23.3603 2.66602 16.0003 2.66602ZM17.8803 24.1194V26.666H14.3203V24.0927C12.0403 23.6127 10.107 22.146 9.96033 19.5593H12.5737C12.707 20.9593 13.667 22.0527 16.107 22.0527C18.7203 22.0527 19.307 20.746 19.307 19.9327C19.307 18.826 18.7203 17.786 15.747 17.0793C12.4403 16.2794 10.1737 14.9193 10.1737 12.186C10.1737 9.89268 12.027 8.39935 14.3203 7.90602V5.33268H17.8803V7.93268C20.3603 8.53268 21.6003 10.4127 21.6803 12.4527H19.067C19.0003 10.9727 18.2137 9.95935 16.107 9.95935C14.107 9.95935 12.907 10.866 12.907 12.146C12.907 13.266 13.7737 13.9993 16.467 14.6927C19.1603 15.386 22.0403 16.546 22.0403 19.906C22.027 22.346 20.2003 23.6793 17.8803 24.1194Z"/>
</svg>

<svg width="32" height="32" fill="none" xmlns="http://www.w3.org/2000/svg"><path d="M16 2.666c-7.36 0-13.333 5.973-13.333 13.333S8.64 29.333 16 29.333s13.334-5.974 13.334-13.334C29.334 8.64 23.36 2.666 16 2.666zm1.88 21.453v2.547h-3.56v-2.573c-2.28-.48-4.213-1.947-4.36-4.534h2.614c.133 1.4 1.093 2.494 3.533 2.494 2.613 0 3.2-1.307 3.2-2.12 0-1.107-.587-2.147-3.56-2.854-3.307-.8-5.573-2.16-5.573-4.893 0-2.293 1.853-3.787 4.146-4.28V5.333h3.56v2.6c2.48.6 3.72 2.48 3.8 4.52h-2.613c-.067-1.48-.853-2.494-2.96-2.494-2 0-3.2.907-3.2 2.187 0 1.12.867 1.853 3.56 2.547 2.693.693 5.573 1.853 5.573 5.213-.013 2.44-1.84 3.773-4.16 4.213z"/></svg>
